client/assets/icons/footer_phone.svg

<svg class="icon-fcontact" width="19" height="19" viewBox="0 0 19 19" fill="none" xmlns="http://www.w3.org/2000/svg">
    <path d="M2.67962 2.32038L3 2L7 6L5.27175 7.72825C5.10946 7.89054 5.06923 8.13846 5.17187 8.34373C6.35853 10.7171 8.28294 12.6415 10.6563 13.8281C10.8615 13.9308 11.1095 13.8905 11.2717 13.7283L13 12L17 16L16.6796 16.3204C14.5683 18.4317 11.2257 18.6693 8.83698 16.8777L7.62857 15.9714C5.88504 14.6638 4.33622 13.115 3.02857 11.3714L2.12226 10.163C0.330722 7.7743 0.56827 4.43173 2.67962 2.32038Z" stroke="white" stroke-width="1.5"></path>
  </svg>

<svg class="icon-fcontact" width="19" height="19" fill="none" xmlns="http://www.w3.org/2000/svg"><path d="M2.68 2.32 3 2l4 4-1.728 1.728a.533.533 0 0 0-.1.616 12.263 12.263 0 0 0 5.484 5.484.533.533 0 0 0 .616-.1L13 12l4 4-.32.32a6 6 0 0 1-7.843.558l-1.208-.907a22.997 22.997 0 0 1-4.6-4.6l-.907-1.208A6 6 0 0 1 2.68 2.32Z" stroke="#fff" stroke-width="1.5"/></svg>
